X:465
T:Beauty Spot, The
R:reel
H:See also #421, #630
D:John McHugh & Barry Carroll: The Long Finger
Z:id:hn-reel-465
M:C|
K:Dmix
dc|:Az~A2 A2dc|~A3G EFGE|~A3G A2dc|A2GE D3E|
DAAG Acdc|~A3G EFGE|~A3d ~B3d|1 cAGE D2dc:|2 cAGE D3d||
|:gd (3Bcd ed (3Bcd|gd (3Bcd eaag|ed (3Bcd edcB|ABcd ed^cd|
gd (3Bcd ed (3Bcd|gd (3Bcd eaag|agdB dedB|1 ABcd ed^cd:|2 ABcd e2||
